src/main/resources/organization/teams.svg

<svg width="24" height="24" viewBox="0 0 24 24" fill="none" xmlns="http://www.w3.org/2000/svg">
    <path d="M16 6C17.1046 6 18 5.10457 18 4C18 2.89543 17.1046 2 16 2C14.8954 2 14 2.89543 14 4C14 5.10457 14.8954 6 16 6Z" fill="#19191C"/>
    <path d="M18 8H15C13.3431 8 12 9.34315 12 11V12H6C4.34315 12 3 13.3431 3 15V22H12V18H21V11C21 9.34315 19.6569 8 18 8Z" fill="#19191C"/>
    <path d="M10 8C10 9.10457 9.10457 10 8 10C6.89543 10 6 9.10457 6 8C6 6.89543 6.89543 6 8 6C9.10457 6 10 6.89543 10 8Z" fill="#19191C"/>
</svg>

<svg xmlns="http://www.w3.org/2000/svg" width="24" height="24" fill="none"><path fill="#19191C" d="M16 6a2 2 0 1 0 0-4 2 2 0 0 0 0 4m2 2h-3a3 3 0 0 0-3 3v1H6a3 3 0 0 0-3 3v7h9v-4h9v-7a3 3 0 0 0-3-3m-8 0a2 2 0 1 1-4 0 2 2 0 0 1 4 0"/></svg>
